X: 1
T: L\"u Dao Xiaoyequ
T: Green Island Serenade
C: Chen Chang-shou
N: NOT the original version; modified to be 32 bars
M: 4/4
L: 1/8
%%slurgraces 1
K: D
A,2 \
| "D"A3 B "(Fm)"A2 F2 | "A7"E2 {FE}DE "Bm"F3 E \
| "G"DD2 B, "D"A,3 B, | "D"A,4 "(A)"z4 \
| "G"B,3 A, B,2 D2 | "A7"E2 {FE}DE "D"F3 A \
| "Em"EE2 F "A7"A3 B | "D"A4 "(A)"z4 |
| "G"BB2 A "D"F2 FE | "Bm"DE F[AD] "Fm"F4 \
| "Em"EE2 D "G"B,A, B,D | "A7"E4 z4 \
| "D"FF2 E "Bm"FA F2 | "Em"EF ED "G"B,4 \
| "D"A,A FE "A7"AB FE | "D"{E}D4 z4 |]
[|"G"B>B BA "D"F F3 | "Em"EE2 D "G"B,A, B,D | "Em"EE2 D "G"B,A, B,D | "A7"E4 z4 \
| "D"A>B AE "Fm"FF2 F | "Em"EE2 D "G"B,2 D2 | "Em"EE2 D "G"B,2 D2 | "D"A4 "A7"z3A |
| "D"A2 {BA}FA "G"B3 d | "D"AB AF "Em"E4 \
| "Bm"F2 ED "G"B,3 D | "A7"E2 {FE}DE "D"F3z \
| "Bm"F2 ED "G"B,3 D | "A7"E2 {FE}DE "D7"F3A \
| "G"B3 F "A7"E3 F/E/ | "D"D4 z2 |]
